icons/midnadark/apps/48/codelite.svg

<?xml version="1.0" encoding="UTF-8" standalone="no"?>
<!-- Created with Inkscape (http://www.inkscape.org/) -->

<svg
   xmlns:dc="http://purl.org/dc/elements/1.1/"
   xmlns:cc="http://creativecommons.org/ns#"
   xmlns:rdf="http://www.w3.org/1999/02/22-rdf-syntax-ns#"
   xmlns:svg="http://www.w3.org/2000/svg"
   xmlns="http://www.w3.org/2000/svg"
   xmlns:xlink="http://www.w3.org/1999/xlink"
   xmlns:sodipodi="http://sodipodi.sourceforge.net/DTD/sodipodi-0.dtd"
   xmlns:inkscape="http://www.inkscape.org/namespaces/inkscape"
   width="48"
   height="48"
   id="svg5453"
   version="1.1"
   inkscape:version="0.91 r13725"
   sodipodi:docname="codelite.svg">
  <defs
     id="defs5455">
    <linearGradient
       y2="145.15184"
       x2="25.934168"
       y1="265.5835"
       x1="25.842737"
       gradientUnits="userSpaceOnUse"
       id="linearGradient4991"
       xlink:href="#linearGradient4180"
       inkscape:collect="always"
       gradientTransform="matrix(0.43552799,-3.1519649e-4,3.3064967e-4,0.41517299,13.65695,-62.254947)" />
    <linearGradient
       id="linearGradient4180"
       inkscape:collect="always">
      <stop
         id="stop4182"
         offset="0"
         style="stop-color:#97a9b1;stop-opacity:1" />
      <stop
         id="stop4184"
         offset="1"
         style="stop-color:#cfdce1;stop-opacity:1" />
    </linearGradient>
  </defs>
  <sodipodi:namedview
     id="base"
     pagecolor="#ffffff"
     bordercolor="#666666"
     borderopacity="1.0"
     inkscape:pageopacity="0"
     inkscape:pageshadow="2"
     inkscape:zoom="8"
     inkscape:cx="9.4158835"
     inkscape:cy="21.739785"
     inkscape:document-units="px"
     inkscape:current-layer="layer1-8"
     showgrid="true"
     fit-margin-top="0"
     fit-margin-left="0"
     fit-margin-right="0"
     fit-margin-bottom="0"
     inkscape:window-width="1366"
     inkscape:window-height="687"
     inkscape:window-x="0"
     inkscape:window-y="0"
     inkscape:window-maximized="1"
     inkscape:showpageshadow="false"
     borderlayer="true"
     showguides="false">
    <inkscape:grid
       type="xygrid"
       id="grid4063" />
    <sodipodi:guide
       position="1.1650391e-05,32.000026"
       orientation="32,0"
       id="guide4157" />
    <sodipodi:guide
       position="1.1650391e-05,2.6367188e-05"
       orientation="0,32"
       id="guide4159" />
    <sodipodi:guide
       position="32.000012,2.6367188e-05"
       orientation="-32,0"
       id="guide4161" />
    <sodipodi:guide
       position="32.000012,32.000026"
       orientation="0,-32"
       id="guide4163" />
    <sodipodi:guide
       position="2.0000117,30.000026"
       orientation="28,0"
       id="guide4167" />
    <sodipodi:guide
       position="2.0000117,2.0000264"
       orientation="0,28"
       id="guide4169" />
    <sodipodi:guide
       position="30.000012,2.0000264"
       orientation="-28,0"
       id="guide4171" />
    <sodipodi:guide
       position="30.000012,30.000026"
       orientation="0,-28"
       id="guide4173" />
    <sodipodi:guide
       position="2.0000117,30.000026"
       orientation="28,0"
       id="guide4181" />
    <sodipodi:guide
       position="2.0000117,2.0000264"
       orientation="0,14"
       id="guide4183" />
    <sodipodi:guide
       position="16.000012,2.0000264"
       orientation="-28,0"
       id="guide4185" />
    <sodipodi:guide
       position="16.000012,30.000026"
       orientation="0,-14"
       id="guide4187" />
    <sodipodi:guide
       position="9.0000117,23.000026"
       orientation="14,0"
       id="guide4193" />
    <sodipodi:guide
       position="9.0000117,9.0000264"
       orientation="0,14.000031"
       id="guide4195" />
    <sodipodi:guide
       position="23.000042,9.0000264"
       orientation="-14,0"
       id="guide4197" />
    <sodipodi:guide
       position="23.000042,23.000026"
       orientation="0,-14.000031"
       id="guide4199" />
  </sodipodi:namedview>
  <metadata
     id="metadata5458">
    <rdf:RDF>
      <cc:Work
         rdf:about="">
        <dc:format>image/svg+xml</dc:format>
        <dc:type
           rdf:resource="http://purl.org/dc/dcmitype/StillImage" />
        <dc:title></dc:title>
      </cc:Work>
    </rdf:RDF>
  </metadata>
  <g
     inkscape:label="Capa 1"
     inkscape:groupmode="layer"
     id="layer1"
     transform="translate(-384.57143,-499.798)">
    <g
       style="display:inline;enable-background:new"
       id="g4238"
       transform="translate(225.81911,462.44565)">
      <g
         style="display:inline"
         id="layer1-8"
         transform="matrix(0.22655187,0,0,0.22655187,106.94841,54.31088)">
        <g
           style="display:none"
           id="layer6" />
        <g
           id="g4027" />
        <g
           id="g4061" />
        <g
           id="g3751" />
        <g
           id="g3782" />
        <g
           id="g3725" />
        <g
           id="g4370"
           transform="matrix(4.4140002,0,0,4.4140002,59.275211,39.357303)">
          <g
             id="g4230"
             transform="matrix(1.0664375,0,0,1.0664375,12.839223,6.4227495)">
            <path
               style="opacity:1;fill:url(#linearGradient4991);fill-opacity:1.0;fill-rule:evenodd;stroke:none;stroke-width:2.76384115px;stroke-linecap:butt;stroke-linejoin:miter;stroke-opacity:1"
               d="M 3.3457031 0.00390625 C 3.1703445 0.0039009178 0.037196823 -0.22612359 0.037109375 3.1054688 L 0.037109375 23.935547 L -0.07421875 23.935547 L -0.07421875 44.894531 C -0.074221949 48.226121 3.0590185 47.9961 3.234375 47.996094 L 23.916016 47.996094 L 24.035156 47.996094 L 44.716797 47.996094 C 44.892153 47.9961 48.025431 48.224168 48.025391 44.892578 L 48.025391 24.064453 L 48.074219 24.064453 L 48.074219 3.1054688 C 48.074266 -0.22612252 44.940977 0.0038998514 44.765625 0.00390625 L 24.146484 0.00390625 L 3.3457031 0.00390625 z "
               transform="matrix(0.93770146,0,0,0.93770146,23.944935,-30.285647)"
               id="path4271-0" />
          </g>
          <path
             style="clip-rule:evenodd;fill:#000000;fill-opacity:0.53759395;fill-rule:evenodd;stroke-width:1.31742239;stroke-miterlimit:4;stroke-dasharray:none"
             d="m 77.280748,-3.540595 c -0.04744,-0.4217064 -0.539132,-0.7386002 -0.964299,-0.7386002 -1.37462,0 -2.594421,-0.8071366 -3.105984,-2.0554011 -0.522612,-1.2785148 -0.185627,-2.7695565 0.838837,-3.7092997 0.322475,-0.294794 0.361654,-0.788273 0.09119,-1.131063 -0.703551,-0.89342 -1.503209,-1.700444 -2.376314,-2.399865 -0.341896,-0.274367 -0.843524,-0.236192 -1.139992,0.09209 -0.894089,0.990195 -2.500101,1.358211 -3.74111,0.840399 -1.291462,-0.543263 -2.105854,-1.851915 -2.026156,-3.256673 0.02623,-0.441241 -0.296244,-0.824884 -0.736145,-0.876118 -1.120458,-0.129593 -2.250739,-0.133611 -3.374546,-0.0089 -0.434877,0.048 -0.757352,0.4226 -0.74273,0.858259 0.04889,1.390917 -0.775324,2.676688 -2.05395,3.200416 -1.226164,0.500847 -2.820903,0.135955 -3.713205,-0.845423 -0.294905,-0.323255 -0.788385,-0.362993 -1.131956,-0.09521 -0.899001,0.705337 -1.716629,1.513031 -2.426655,2.399083 -0.276933,0.344466 -0.236191,0.843749 0.08952,1.140104 1.043997,0.9454356 1.381095,2.4494261 0.838725,3.7426743 -0.517813,1.2329731 -1.798113,2.027607 -3.263816,2.027607 -0.475621,-0.015291 -0.814392,0.3039465 -0.866407,0.7363685 -0.131938,1.1269324 -0.1335,2.2751837 -0.0065,3.41126936 0.0471,0.4234925 0.553755,0.7375958 0.983609,0.7375958 1.306197,-0.033377 2.560266,0.77532384 3.086339,2.05551244 0.524399,1.2785139 0.187301,2.7686635 -0.838725,3.7091874 -0.320912,0.2947923 -0.361654,0.7874904 -0.09119,1.1302808 0.696965,0.8877266 1.496735,1.6955316 2.372965,2.4007576 0.343682,0.2769328 0.843748,0.2378658 1.141666,-0.09041 0.897438,-0.992651 2.503339,-1.359997 3.739436,-0.84118 1.2947,0.541588 2.109091,1.8501288 2.029394,3.2556678 -0.02601,0.441464 0.29803,0.825778 0.736144,0.87623 0.573178,0.06686 1.149815,0.100236 1.728015,0.100236 0.548844,0 1.097799,-0.03013 1.646643,-0.09119 0.434989,-0.04799 0.757241,-0.4226 0.742618,-0.859041 -0.05034,-1.390136 0.775324,-2.6759048 2.052276,-3.1987408 1.234424,-0.504195 2.822464,-0.135174 3.71488,0.845199 0.296579,0.3225868 0.786598,0.3615428 1.132067,0.09466 0.897326,-0.703663 1.71328,-1.510687 2.426654,-2.3991955 C 74.348899,7.1729972 74.309832,6.6729319 73.98244,6.3766886 72.938444,5.431253 72.599672,3.9270392 73.142041,2.634684 73.651929,1.41812 74.884678,0.60127306 76.210631,0.60127306 l 0.185516,0.00476 c 0.430078,0.03494 0.825777,-0.2963556 0.877905,-0.7353631 0.13216,-1.12793686 0.133722,-2.27518466 0.0067,-3.41126936 z M 62.398792,3.160052 c -2.759063,0 -5.003328,-2.24426504 -5.003328,-5.0033287 0,-2.7589514 2.244265,-5.0033287 5.003328,-5.0033287 2.758953,0 5.003218,2.2443773 5.003218,5.0033287 0,2.75906366 -2.244265,5.0033287 -5.003218,5.0033287 z"
             id="path6"
             inkscape:connector-curvature="0" />
        </g>
      </g>
    </g>
  </g>
</svg>

<svg xmlns="http://www.w3.org/2000/svg" viewBox="0 0 48 48"><defs><linearGradient y2="145.15" x2="25.934" y1="265.58" x1="25.843" gradientUnits="userSpaceOnUse" id="0" gradientTransform="matrix(.43553-.00032.00033.41517 13.657-62.25)"><stop stop-color="#97a9b1"/><stop offset="1" stop-color="#cfdce1"/></linearGradient></defs><g transform="matrix(.99999 0 0 .99999-38.37 25.882)" enable-background="new" fill-rule="evenodd"><path d="m3.346.004c-.175 0-3.309-.23-3.309 3.102v20.83h-.111v20.959c0 3.332 3.133 3.102 3.309 3.102h20.682.119 20.682c.175 0 3.309.228 3.309-3.104v-20.828h.049v-20.959c0-3.332-3.133-3.102-3.309-3.102h-20.619-20.801" transform="translate(38.37-25.875)" fill="url(#0)"/><path d="m77.28-3.541c-.047-.422-.539-.739-.964-.739-1.375 0-2.594-.807-3.106-2.055-.523-1.279-.186-2.77.839-3.709.322-.295.362-.788.091-1.131-.704-.893-1.503-1.7-2.376-2.4-.342-.274-.844-.236-1.14.092-.894.99-2.5 1.358-3.741.84-1.291-.543-2.106-1.852-2.026-3.257.026-.441-.296-.825-.736-.876-1.12-.13-2.251-.134-3.375-.009-.435.048-.757.423-.743.858.049 1.391-.775 2.677-2.054 3.2-1.226.501-2.821.136-3.713-.845-.295-.323-.788-.363-1.132-.095-.899.705-1.717 1.513-2.427 2.399-.277.344-.236.844.09 1.14 1.044.945 1.381 2.449.839 3.743-.518 1.233-1.798 2.028-3.264 2.028-.476-.015-.814.304-.866.736-.132 1.127-.133 2.275-.007 3.411.047.423.554.738.984.738 1.306-.033 2.56.775 3.086 2.056.524 1.279.187 2.769-.839 3.709-.321.295-.362.787-.091 1.13.697.888 1.497 1.696 2.373 2.401.344.277.844.238 1.142-.09.897-.993 2.503-1.36 3.739-.841 1.295.542 2.109 1.85 2.029 3.256-.026.441.298.826.736.876.573.067 1.15.1 1.728.1.549 0 1.098-.03 1.647-.091.435-.048.757-.423.743-.859-.05-1.39.775-2.676 2.052-3.199 1.234-.504 2.822-.135 3.715.845.297.323.787.362 1.132.095.897-.704 1.713-1.511 2.427-2.399.277-.344.238-.844-.09-1.14-1.044-.945-1.383-2.45-.84-3.742.51-1.217 1.743-2.033 3.069-2.033l.186.005c.43.035.826-.296.878-.735.132-1.128.134-2.275.007-3.411m-14.882 6.701c-2.759 0-5-2.244-5-5 0-2.759 2.244-5 5-5 2.759 0 5 2.244 5 5 0 2.759-2.244 5-5 5" fill-opacity=".538" stroke-width="1.317"/></g></svg>
